brandFactory_export/1.Light/Bebe_chupete_1Light.svg

<?xml version="1.0" encoding="UTF-8"?>
<svg width="24px" height="24px" viewBox="0 0 24 24" version="1.1" xmlns="http://www.w3.org/2000/svg" xmlns:xlink="http://www.w3.org/1999/xlink">
    <title>1.Light/Bebe_chupete_1Light</title>
    <g id="Symbols" stroke="none" stroke-width="1" fill="none" fill-rule="evenodd">
        <g id="1.Light/Bebe_chupete_1Light" fill="#5CB615" fill-rule="nonzero">
            <path d="M19.2436975,14.2857143 C18.9008403,14.6453782 18.4840336,14.9243697 18.0235294,15.1563025 C17.8588235,15.2403361 17.7008403,15.3310924 17.5226891,15.3983193 C16.9579832,15.6033613 16.3193277,15.707563 15.6336134,15.7378151 C15.5361345,15.7411765 15.4453782,15.7613445 15.3445378,15.7613445 L9.39495798,15.7613445 C9.33445378,15.7546218 9.28067227,15.7512605 9.21680672,15.7478992 C9.17983193,15.7478992 9.14621849,15.7411765 9.10588235,15.7411765 C8.42016807,15.7109244 7.78151261,15.6067227 7.21680672,15.4016807 C7.07226891,15.3344538 7.00168067,15.2941176 6.87058824,15.2436975 C6.83361345,15.2302521 6.76302521,15.1764706 6.71596639,15.1596639 C6.25882353,14.9310924 5.83865546,14.6487395 5.49579832,14.2890756 C5.15630252,13.8252101 4.97478992,13.1932773 4.97478992,12.3798319 C4.97478992,11.5663866 5.15630252,10.9344538 5.49579832,10.4705882 C6.30252101,9.61680672 7.46890756,9.1394958 8.87394958,9.03865546 C8.79663866,9.39159664 8.74285714,9.76806723 8.74285714,10.1848739 C8.74285714,11.4084034 9.07563025,12.3663866 9.73445378,13.0252101 C10.3596639,13.6537815 11.2403361,13.9731092 12.3563025,13.9798319 L12.3563025,13.9831933 L12.3831933,13.9831933 L12.3831933,13.9798319 C13.4957983,13.9731092 14.3798319,13.6571429 15.005042,13.0252101 C15.6638655,12.3630252 15.9966387,11.405042 15.9966387,10.1848739 C15.9966387,9.76470588 15.9428571,9.39159664 15.8655462,9.03865546 C17.2739496,9.1394958 18.4403361,9.61680672 19.2470588,10.4705882 C19.5865546,10.9344538 19.7680672,11.5697479 19.7680672,12.3798319 C19.7647059,13.189916 19.5831933,13.8218487 19.2436975,14.2857143 Z M12.3663866,19.9596639 C9.99663866,19.9495798 9.7210084,18.1277311 9.71428571,17.3378151 L9.70756303,16.7697479 L15.0218487,16.7697479 L15.0151261,17.3378151 C15.0117647,18.1277311 14.7361345,19.9495798 12.3663866,19.9596639 Z M17.4151261,17.6235294 C17.405042,18.7932773 17.0084034,22.605042 12.3663866,22.6117647 C7.72436975,22.6016807 7.32773109,18.7932773 7.31764706,17.6235294 L7.30420168,16.487395 C7.75462185,16.6184874 8.23193277,16.702521 8.7394958,16.7428571 L8.74957983,17.3478992 C8.76638655,19.0890756 9.72436975,20.9512605 12.3563025,20.9647059 L12.3563025,20.9680672 L12.3831933,20.9680672 L12.3831933,20.9647059 C15.0184874,20.9512605 15.9764706,19.0890756 15.989916,17.3478992 L15.9966387,16.7428571 C16.5042017,16.702521 16.9815126,16.6151261 17.4352941,16.487395 L17.4151261,17.6235294 L17.4151261,17.6235294 Z M9.6907563,1.93613445 C10.2957983,1.32436975 11.1966387,1.01176471 12.3663866,1.00840336 C13.5327731,1.00840336 14.4336134,1.3210084 15.0420168,1.93613445 C15.6773109,2.57815126 15.9932773,3.54621849 15.9932773,4.82352941 C15.9932773,6.00336134 15.707563,6.90756303 15.1663866,7.54285714 C15.1226891,7.59327731 15.0890756,7.65714286 15.0420168,7.70420168 C15.0184874,7.73109244 15.0016807,7.76134454 14.9815126,7.78151261 C14.897479,7.85210084 14.8504202,7.91260504 14.7764706,7.99327731 C14.7596639,8.01008403 14.7495798,8.03361345 14.7361345,8.05378151 C14.6184874,8.22857143 14.6588235,8.48739496 14.6823529,8.55462185 L14.8571429,8.99159664 C14.9613445,9.33781513 15.0184874,9.73109244 15.0184874,10.1815126 C15.0184874,11.1193277 14.7865546,11.8319328 14.3226891,12.2957983 C13.8823529,12.7428571 13.2201681,12.9647059 12.3596639,12.9680672 C11.502521,12.9647059 10.8403361,12.7428571 10.3966387,12.2957983 C9.93613445,11.8319328 9.70084034,11.1193277 9.70084034,10.1815126 C9.70084034,9.72773109 9.75798319,9.33781513 9.86554622,8.99159664 L10.0403361,8.55462185 C10.0638655,8.48739496 10.1042017,8.22857143 9.98655462,8.05378151 C9.9697479,8.03697479 9.96638655,8.01008403 9.94621849,7.99327731 C9.87226891,7.91260504 9.82857143,7.8487395 9.74117647,7.78151261 C9.7210084,7.75798319 9.70420168,7.73109244 9.68067227,7.70420168 C9.63361345,7.65714286 9.6,7.59663866 9.55630252,7.54285714 C9.01176471,6.90756303 8.72605042,6.00336134 8.72605042,4.82352941 C8.73613445,3.54957983 9.05546218,2.57815126 9.6907563,1.93613445 L9.6907563,1.93613445 Z M19.9697479,9.80504202 L19.9495798,9.77815126 C19.9327731,9.76134454 19.9394958,9.76134454 19.9226891,9.74453782 C19.8588235,9.66386555 19.8285714,9.63361345 19.7546218,9.55966387 C19.7042017,9.5092437 19.6268908,9.43529412 19.5563025,9.39159664 C18.6386555,8.59831933 17.4453782,8.12773109 16.0436975,8.01008403 C16.6420168,7.20672269 16.9613445,6.14453782 16.9613445,4.82352941 C16.9613445,3.26722689 16.5411765,2.05042017 15.7142857,1.21344538 C14.9210084,0.413445378 13.7983193,0.00336134454 12.3764706,0 L12.3495798,0 C10.9277311,0.00672268908 9.80504202,0.413445378 9.01176471,1.21344538 C8.18487395,2.05042017 7.76470588,3.26386555 7.76470588,4.82352941 C7.76470588,6.14789916 8.08739496,7.20672269 8.68571429,8.01008403 C7.28403361,8.12773109 6.0907563,8.59831933 5.1697479,9.39159664 C5.10252101,9.43529412 5.02521008,9.5092437 4.97478992,9.55966387 C4.90420168,9.63361345 4.87058824,9.66386555 4.80672269,9.74453782 C4.78991597,9.76134454 4.8,9.76134454 4.78319328,9.77815126 L4.76302521,9.80504202 C4.26554622,10.4504202 4,11.3042017 4,12.3764706 C4,13.4453782 4.26554622,14.302521 4.76302521,14.9478992 C4.77983193,14.9647059 4.78991597,14.9882353 4.80672269,15.005042 C4.87058824,15.0857143 4.9210084,15.1327731 4.99159664,15.2067227 C5.04537815,15.2605042 5.09915966,15.3142857 5.17310924,15.3579832 C5.51932773,15.6571429 5.9092437,15.9058824 6.32941176,16.1142857 L6.34957983,17.6336134 C6.37647059,20.5243697 7.96638655,23.6067227 12.3529412,23.6235294 L12.3798319,23.6235294 C16.7663866,23.610084 18.3596639,20.5243697 18.3831933,17.6336134 L18.4033613,16.1142857 C18.8235294,15.9058824 19.2134454,15.6571429 19.5563025,15.3579832 C19.6302521,15.3142857 19.687395,15.2605042 19.7378151,15.2067227 C19.8117647,15.1327731 19.8588235,15.0857143 19.9226891,15.005042 C19.9394958,14.9882353 19.9495798,14.9647059 19.9663866,14.9478992 C20.4638655,14.302521 20.7294433,13.4487395 20.7294433,12.3764706 C20.7327731,11.307563 20.4672269,10.4504202 19.9697479,9.80504202 L19.9697479,9.80504202 Z" id="Bebe_chupete_1Light"></path>
        </g>
    </g>
</svg>

<svg width="24" height="24" viewBox="0 0 24 24" xmlns="http://www.w3.org/2000/svg"><path d="M19.244 14.286c-.343.36-.76.638-1.22.87-.165.084-.323.175-.501.242-.565.205-1.204.31-1.89.34-.097.003-.188.023-.288.023h-5.95a2.952 2.952 0 00-.178-.013c-.037 0-.07-.007-.111-.007-.686-.03-1.324-.134-1.89-.34-.144-.067-.214-.107-.345-.157-.037-.014-.108-.068-.155-.084a4.359 4.359 0 01-1.22-.87c-.34-.465-.521-1.097-.521-1.91 0-.814.181-1.446.52-1.91.808-.853 1.974-1.33 3.379-1.431-.077.353-.131.73-.131 1.146 0 1.223.333 2.181.991 2.84.626.629 1.506.948 2.622.955v.003h.027v-.003c1.113-.007 1.997-.323 2.622-.955.659-.662.992-1.62.992-2.84 0-.42-.054-.793-.131-1.146 1.408.1 2.574.578 3.381 1.432.34.463.521 1.099.521 1.909-.003.81-.185 1.442-.524 1.906zm-6.878 5.674c-2.37-.01-2.645-1.832-2.652-2.622l-.006-.568h5.314l-.007.568c-.003.79-.279 2.612-2.649 2.622zm5.05-2.336c-.011 1.17-.408 4.981-5.05 4.988-4.642-.01-5.038-3.819-5.048-4.988l-.014-1.137c.45.131.928.216 1.435.256l.01.605c.017 1.741.975 3.603 3.607 3.617v.003h.027v-.003c2.635-.014 3.593-1.876 3.607-3.617l.007-.605a7.47 7.47 0 001.438-.256l-.02 1.137zM9.69 1.936c.605-.612 1.506-.924 2.675-.928 1.167 0 2.068.313 2.676.928.635.642.951 1.61.951 2.888 0 1.18-.285 2.084-.827 2.719-.043.05-.077.114-.124.161-.024.027-.04.057-.06.078-.085.07-.132.13-.206.211-.016.017-.026.04-.04.06-.118.176-.077.434-.054.502l.175.437c.104.346.161.74.161 1.19 0 .937-.231 1.65-.695 2.114-.44.447-1.103.669-1.963.672-.857-.003-1.52-.225-1.963-.672-.46-.464-.696-1.177-.696-2.114 0-.454.057-.844.165-1.19l.174-.437c.024-.068.064-.326-.053-.501-.017-.017-.02-.044-.04-.06-.075-.081-.118-.145-.206-.212-.02-.024-.037-.05-.06-.078-.047-.047-.081-.107-.125-.161-.544-.635-.83-1.54-.83-2.72.01-1.273.33-2.245.965-2.887zM19.97 9.805l-.02-.027c-.017-.017-.01-.017-.027-.033a1.739 1.739 0 00-.168-.185 1.242 1.242 0 00-.199-.168c-.917-.794-2.11-1.264-3.512-1.382.598-.803.917-1.865.917-3.186 0-1.557-.42-2.774-1.247-3.61-.793-.8-1.916-1.21-3.338-1.214h-.026c-1.422.007-2.545.413-3.338 1.213-.827.837-1.247 2.05-1.247 3.61 0 1.325.322 2.384.92 3.187-1.401.118-2.594.588-3.515 1.382a1.377 1.377 0 00-.195.168c-.07.074-.104.104-.168.185-.017.016-.007.016-.024.033l-.02.027c-.497.645-.763 1.5-.763 2.571 0 1.07.266 1.927.763 2.572.017.017.027.04.044.057.064.08.114.128.185.202.053.054.107.107.181.151.346.3.736.548 1.156.756l.02 1.52c.027 2.89 1.617 5.973 6.004 5.99h.027c4.386-.014 5.98-3.1 6.003-5.99l.02-1.52a5.38 5.38 0 001.153-.756.819.819 0 00.182-.151c.074-.074.12-.121.185-.202.016-.017.027-.04.043-.057.498-.645.763-1.5.763-2.572.004-1.068-.262-1.926-.76-2.571z" fill="#5CB615" fill-rule="nonzero"/></svg>
